app/public/dtpr-icons/handsfree.svg

<svg width="36" height="36" viewBox="0 0 36 36" fill="none" xmlns="http://www.w3.org/2000/svg">
<path d="M31.8564 8.8453L19 1.42265C18.3812 1.06538 17.6188 1.06538 17 1.42265L4.14359 8.8453C3.52479 9.20257 3.14359 9.86282 3.14359 10.5774V25.4226C3.14359 26.1372 3.52479 26.7974 4.14359 27.1547L17 34.5774C17.6188 34.9346 18.3812 34.9346 19 34.5774L31.8564 27.1547C32.4752 26.7974 32.8564 26.1372 32.8564 25.4226V10.5774C32.8564 9.86282 32.4752 9.20256 31.8564 8.8453Z" stroke="black" stroke-width="2"/>
<path d="M19.5 11.5C20.6 11.5 21.5 10.6 21.5 9.5C21.5 8.4 20.6 7.5 19.5 7.5C18.4 7.5 17.5 8.4 17.5 9.5C17.5 10.6 18.4 11.5 19.5 11.5ZM15.8 14.9L13 29H15.1L16.9 21L19 23V29H21V21.5L18.9 19.5L19.5 16.5C20.8 18 22.8 19 25 19V17C23.1 17 21.5 16 20.7 14.6L19.7 13C19.3 12.4 18.7 12 18 12C17.7 12 17.5 12.1 17.2 12.1L12 14.3V19H14V15.6L15.8 14.9Z" fill="black"/>
</svg>

<svg xmlns="http://www.w3.org/2000/svg" width="36" height="36" fill="none"><path stroke="#000" stroke-width="2" d="M31.856 8.845 19 1.423a2 2 0 0 0-2 0L4.144 8.845a2 2 0 0 0-1 1.732v14.846a2 2 0 0 0 1 1.732L17 34.577a2 2 0 0 0 2 0l12.856-7.422a2 2 0 0 0 1-1.732V10.577a2 2 0 0 0-1-1.732Z"/><path fill="#000" d="M19.5 11.5c1.1 0 2-.9 2-2s-.9-2-2-2-2 .9-2 2 .9 2 2 2m-3.7 3.4L13 29h2.1l1.8-8 2.1 2v6h2v-7.5l-2.1-2 .6-3C20.8 18 22.8 19 25 19v-2c-1.9 0-3.5-1-4.3-2.4l-1-1.6c-.4-.6-1-1-1.7-1-.3 0-.5.1-.8.1L12 14.3V19h2v-3.4z"/></svg>
